X:1
T: Zuckin zider droo a ztraw
S: From Mr F B Kettlewell at Harptree Court on April 14th 1904
Z: Transcribed by Jack Shuttleworth, January 2014
M: 3/4
L: 1/8
K: F
ccc | A3 cBA | G4 A2 | BA Bd cB | 
w: The purtiest |girl I ever |zaw was zuckin' *zider *droo a
cf!fermata!c ccc | A3 cBA | G4 A2 | BA Bd cE | F3 ||
w: ztraw **The purtiest |girl I ever |zaw was zuckin' *zider *droo a ztraw

